X:834
T:Forbes Morrison #2
C:Joe Buchanan's Scottish Tome - Page 404.3
I:404 3
Z:Carl Allison
C:J. Scott Skinner
R:Strathspey
L:1/8
M:4/4
K:A
d | (c<A)(E>D) (C>E)(A,>C) | {C}D2 (B>A)  (3.G.f.e (3.d.c.B | \
(c<A) (E>F) C>EA>C | (3.D.F.B (3.G.E.G (A2 A) :|
g | (a>f)(g>e) (f>d)e>c | d>Bc>A (3.B.c.d (3.e.f.g | \
(a>f)(g>e) (f>d)e>A | (3.G.f.e (3.d.c.B {G}(A2 A>)g |
(3.a.f.a (3.g.e.g (3.f.d.f (3.e.c.e | (3.d.B.d (3.c.A.c (3.B.c.d (3.e.f.g | \
(3.a.g.a (3.e.f.g (3.a.e.d (3.c.B.A | (3.G.f.e (3.d.c.B {G}(A2 A) |]
%
W:Errata: Straight-line slurs ommitted. No abc notation capability.
